svg/solid/bxs-car-crash.svg

<svg xmlns="http://www.w3.org/2000/svg" width="24" height="24"><path d="M2.634 17.918a1.765 1.765 0 0 0 1.201 1.291l.18.791H4v2h16v-2H6.683a.84.84 0 0 0-.007-.278l-.196-.863 10.357-2.356.196.863a.886.886 0 0 0 1.06.667l.863-.197a.885.885 0 0 0 .667-1.06l-.251-1.103c.446-.416.67-1.046.525-1.683l-.59-2.59a1.76 1.76 0 0 0-1.262-1.307l-2.049-3.378a2.774 2.774 0 0 0-2.982-1.263l-7.868 1.79a2.769 2.769 0 0 0-2.144 2.43l-.387 3.932a1.76 1.76 0 0 0-.57 1.724l.589 2.59zm3.02-.688a1.327 1.327 0 1 1-.59-2.589 1.327 1.327 0 0 1 .59 2.589zm11.222-2.552a1.328 1.328 0 1 1-.59-2.587 1.328 1.328 0 0 1 .59 2.587zM5.589 9.192l7.869-1.791a.773.773 0 0 1 .83.351l1.585 2.613-.566.129-10.046 2.287-.568.129.299-3.042a.772.772 0 0 1 .597-.676zM18.405 4 17 2l-.5 3L19 9l3 1-2-2.539 2-.933-2-.933L22 2z"/></svg>

<svg xmlns="http://www.w3.org/2000/svg" width="24" height="24" viewBox="0 0 24 24"><path d="M2.634 17.918c.145.637.619 1.108 1.201 1.291L4.015 20H4v2h16v-2H6.683c.009-.091.015-.184-.007-.278l-.196-.863 10.357-2.356.196.863c.109.477.583.775 1.06.667l.863-.197c.478-.108.775-.583.667-1.06l-.251-1.103c.446-.416.67-1.046.525-1.683l-.59-2.59c-.149-.659-.652-1.14-1.262-1.307l-2.049-3.378c-.62-1.019-1.818-1.524-2.982-1.263L5.146 7.242C3.981 7.507 3.12 8.483 3.002 9.672l-.387 3.932c-.477.415-.721 1.065-.57 1.724L2.634 17.918zM5.654 17.23c-.714.163-1.427-.285-1.589-1-.163-.715.285-1.427 1-1.589s1.427.285 1.59 1C6.817 16.356 6.369 17.068 5.654 17.23zM16.876 14.678c-.715.163-1.427-.286-1.59-1-.162-.715.286-1.427 1.001-1.589s1.427.286 1.589 1C18.039 13.803 17.591 14.515 16.876 14.678zM5.589 9.192l7.869-1.791c.323-.073.657.068.83.351l1.585 2.613-.566.129L5.261 12.781 4.693 12.91l.299-3.042C5.025 9.538 5.265 9.266 5.589 9.192zM18.405 4L17 2 16.5 5 19 9 22 10 20 7.461 22 6.528 20 5.595 22 2z"/></svg>
